X:1
T:Herdenking
T:Herdenking
T:Jef Tinel (1885-1972)
T:Ad van de Wege
C:Jef Tinel (1885-1972)
Z:Ad van de Wege
%%score { ( 1 2 ) | ( 3 4 5 ) }
L:1/8
Q:1/4=92
M:6/8
K:Eb
V:1 treble nm="Orgel" snm="Org."
V:2 treble 
V:3 bass 
V:4 bass 
V:5 bass 
V:1
"^Andante"!p! G EF G x2 | B2 e def | g2 f edc | cBA GFE | F2 G EFG | B2 B ABc | d2 d edc | %7
 BcA"^rit." G2 F | E2 G"^a tempo" B=A^F | DGG ed=B | Gcc _dc=A | cBB _cBG | BA"^rit."_G/F/ GA=A | %13
 B2 =G"^a tempo" EFG | B2 e def | g2 f edc | cBA GFE | F2 G =EFG | B2 B ABc | =d2 d edc | %20
 Bc(A"^Rit." A)GF | E2"^poco piu lento" G EFG | B2 G EF(A | %23
"^Rit.--------------------------------" (A3) A)G^F | (G3 G) z2 |] %25
V:2
 z z2 G x2 | EFG B2 A | GAB cBA | AGF E3 | E D2 E2 _D | C=D=E FG(A | A)GF (E3 | (E3) E)CD | %8
 B,2 z B, C2 | D2 =F E F2 | G2 _G (F3 | F2) _F EF_D | (E6 | E) =D2 E z G | EFG B2 A | GAB cBA | %16
 AGF (E3 | E) D2 CD(=E | E)FG FG(A | A)GF (E3 | E3) D3 | B,2 z (E3 | (E3) E2) (=D | D)EF E3 | %24
 (E3 E) z2 |] %25
V:3
 z z2 E, x2 | G,F,E, B,C!ped!D!ped-up! | E2 D CDE | DE(C C2) =A, | B,2 _A, G,A,B, | G,3 F,3 | %6
 (CB,)A, G,2 A, | B,A,C B,2 (A, | A,)G, z D,3 | G,6 | C2 (B, B,)=A,(E | E)_DD _CDB, | %12
 _C2 __B, B,A,/_G,/F,/E,/ | F,_B,A, G, z E, | G,F,E, B,C[B,,D] | E2 D CDE | DEC C2 =A, | %17
 B,2 A, G,=A,B, | C3 C_D(C | C)B,A, G,2 A, | B,A,(C C)B,(A, | A,)G,B, G,A,[G,B,] | _D2 B, C2 (_C | %23
 C3) B,2 =A, | (B,3"_tijdsduur 2'10''" B,) z2 |] %25
V:4
 z z2 z x2 | z2 z z2 B,, | E,F,G, A,B,C | F,G,A, =A,2 F, | B,2 B,, E,3 | =E,D,C, F,3 | %6
 B,,2 B,, C,B,,A,, | G,,A,,F,, B,,3 | E,,2 x G,,2 =A,, | B,,2 =B,, C,2 D, | E,3 F,3 | %11
 B,,2 G,, (A,,3 | A,,)_C,__D, C,3 | B,,3 E, x2 | x6 | E,F,G, A,B,C | F,G,A, =A,2 F, | %17
 B,2 B,, (C,3 | C,)D,=E, F,3 | B,,2 B,, C,B,,A,, | G,,A,,F,, B,,3 | (E,,6 | E,)F,G, B,A,F, | %23
 ((E,6 | (([E,,E,]3)) [E,,E,])) z2 |] %25
V:5
 x6 | x6 | x6 | x6 | x6 | x4 C x | x6 | x6 | x6 | x6 | x6 | x6 | x6 | x6 | x6 | x6 | x6 | x6 | x6 | %19
 x6 | x6 | x6 | (E,,6 | E,,6) | x6 |] %25

